X:1
T:Title
%%score { ( 1 3 ) | ( 2 4 ) }
L:1/8
M:4/4
K:Ab
V:1 treble nm="Grand Piano"
V:3 treble 
V:2 bass 
V:4 bass 
V:1
 z4 z2[Q:1/4=100] [A,C][B,D] | [CE][CE][CE]E EE c>B | [CA]4 [CE]2 [EA][EG] | FFFF AB A>F | %4
 [CE]6 [A,C][B,D] | [CE][CE][CE]E EE c>B | A4 F2 FF | EEEd c2 B2 |[M:3/4] [CA]6 |[M:1/4] A>A | %10
[M:4/4] GGGA BB [FGd]>[FGd] | [EAc]4 [CEA]2 [A,EA][A,EG] | FFFF [=DB][DB] [DB]>[Dc] | %13
 B6[K:bass][K:treble] z2 | [Ec][Fc][Ec][Fc] [Ec][CA] [Fd]>[Ec] | [DB]2 [Fd]4 dd | cccd cB A>G | %17
[M:3/4] A6 |] %18
V:2
 z4 z2 [A,,E,][A,,E,] | [A,,A,][A,,A,][A,,A,][C,A,] [E,G,B,][E,B,D] [E,A,E]>[E,G,D] | %2
 [A,,A,]4 [A,,A,]2 [C,A,][C,A,] | [D,A,D][D,A,D][D,A,D][D,A,D] [D,F,D][D,F,D] [D,F,D]>[D,A,D] | %4
 [A,,A,]6 [A,,E,][A,,E,] | [A,,A,][A,,A,][A,,A,][C,A,] [E,G,B,][E,B,D] [E,A,E]>[E,G,D] | %6
 [F,A,C]4 [D,A,D]2 [=D,A,_C][D,A,C] | [E,A,C][E,A,C][E,A,C][E,B,E] [E,A,E]2 [E,G,D]2 | %8
[M:3/4] [A,,A,]6 |[M:1/4] [A,C]>[A,C] |[M:4/4] [E,B,D][E,B,D][E,B,D][E,CE] [E,DE][E,DE] E,>E, | %11
 A,4 A,2 C,C, | [D,A,D][D,A,D][D,A,D][D,A,D] [B,,A,][B,,A,] [B,,A,]>[B,,A,] | [G,E]6 z2 | %14
 [A,,A,][A,,A,][A,,A,][A,,A,] [A,,A,][A,,A,] [A,,A,]>[A,,A,] | [D,F,]2 [B,,B,]4 [E,G,E][E,G,E] | %16
 [A,E][A,F][A,E][A,F][K:bass] [E,A,E][E,G,D] [E,A,C]>[E,B,D] |[M:3/4] z2 F,>F, E,2 |] %18
V:3
 x8 | x8 | x8 | x8 | x8 | x8 | x8 | x8 |[M:3/4] x6 |[M:1/4] x2 |[M:4/4] x8 | x8 | x8 | %13
 z2[K:bass] E,F, E,D,[K:treble][EA][EB] | x8 | x8 | x8 |[M:3/4] [A,C]2 D>D C2 |] %18
V:4
 x8 | x8 | x8 | x8 | x8 | x8 | x8 | x8 |[M:3/4] x6 |[M:1/4] x2 |[M:4/4] x8 | x8 | x8 | %13
 E,2 z2 z2 [C,A,][B,,G,] | x8 | x8 | x4[K:bass] x4 |[M:3/4] A,,6 |] %18

